X:1
T:Gossip Joan
M:4/4
L:1/4
K:D
 G| F A A A| A2 A A| B A A A| G F2| A| F A A A| G2 G G| F2 F F| E2 E|\
 A| A d c B| A- B- A G| F2 E2| D3||
